archdroid-icon-theme/Archdroid-LightGreen/apps/scalable/tomboy-panel.svg

<svg fill="#8BC34A" height="48" viewBox="0 0 48 48" width="48" xmlns="http://www.w3.org/2000/svg"><path d="m10 6c-2.216 0-4 1.784-4 4v28c0 2.216 1.784 4 4 4h28c2.216 0 4-1.784 4-4v-28c0-2.216-1.784-4-4-4zm21.552734 6c.341715 0 .683324.130589.94336.390625l3.113281 3.113281c.520072.520072.520072 1.366647 0 1.886719l-2.439453 2.441406-5.001953-5.001953 2.441406-2.439453c.260036-.260036.601645-.390625.943359-.390625zm-4.796875 4.244141 5 5-14.755859 14.755859h-5v-5z" fill="#8BC34A" stroke-width="3"/></svg>

<svg fill="#8BC34A" height="48" version="1.1" viewBox="0 0 48 48" width="48" xmlns="http://www.w3.org/2000/svg"><path d="M10 6C7.784 6 6 7.784 6 10L6 38C6 40.216 7.784 42 10 42L38 42C40.216 42 42 40.216 42 38L42 10C42 7.784 40.216 6 38 6L10 6zM31.552734 12C31.894449 12 32.236058 12.130589 32.496094 12.390625L35.609375 15.503906C36.129447 16.023978 36.129447 16.870553 35.609375 17.390625L33.169922 19.832031 28.167969 14.830078 30.609375 12.390625C30.869411 12.130589 31.21102 12 31.552734 12zM26.755859 16.244141L31.755859 21.244141 17 36 12 36 12 31 26.755859 16.244141z" fill="#8BC34A" stroke-width="3"/></svg>
